X:194
T:Honest Temple's Jigg
M:6/8
L:1/8
B:Thompson's Compleat Collection of 200 Favourite Country Dances, vol. 2 (London, 1765)
Z:Transcribed and edited by Flynn Titford-Mock, 2007
Z:abc's:AK/Fiddler's Companion
K:D
a | f2d d2d | "tr"d>cd A2d | B2d A2d | F2E D2a | f2d d2d | ^gfg a2d | cBA "tr"B3 | (A3 A2) :|
|: a | (f2d) (=c2A) | (B2^d) (e2b) | (g2e) (d2B) | c2e a2g | fdd bgg | aff gab | agf edc | (d3 d2) :|

